assets/olacabs/original.svg

<svg height="402" viewBox="-.578 -.578 51.974 20.409" width="1024" xmlns="http://www.w3.org/2000/svg"><path d="m9.588 0a9.53 9.53 0 0 0 -5.322 1.615 9.6 9.6 0 0 0 -3.533 4.319 9.67 9.67 0 0 0 -.55 5.562 9.65 9.65 0 0 0 2.616 4.934 9.532 9.532 0 0 0 10.438 2.092 9.6 9.6 0 0 0 4.299-3.545 9.664 9.664 0 0 0 -1.186-12.153 9.55 9.55 0 0 0 -6.762-2.824m11.764.64v17.96h8.076l2.24-4.2h-6.138l.012-13.76zm19.893.028-9.576 17.932h4.748l4.828-9.053 4.825 9.053h4.748zm-31.926 3.78a5.14 5.14 0 0 1 4.545 2.296c.567.853.871 1.857.871 2.883a5.2 5.2 0 0 1 -1.52 3.668 5.16 5.16 0 0 1 -3.636 1.52 5.14 5.14 0 0 1 -2.86-.87 5.2 5.2 0 0 1 -1.906-2.324 5.21 5.21 0 0 1 1.11-5.656 5.15 5.15 0 0 1 3.396-1.518"/></svg>

<svg xmlns="http://www.w3.org/2000/svg" id="svg181" width="1024" height="402" viewBox="-0.578 -0.578 51.974 20.409"><path id="path133" d="M9.588 0a9.53 9.53 0 0 0-5.322 1.615A9.6 9.6 0 0 0 .733 5.934a9.67 9.67 0 0 0-.55 5.562 9.65 9.65 0 0 0 2.616 4.934 9.532 9.532 0 0 0 10.438 2.092 9.6 9.6 0 0 0 4.299-3.545A9.664 9.664 0 0 0 16.35 2.824 9.55 9.55 0 0 0 9.588 0m11.764.64V18.6h8.076l2.24-4.2H25.53L25.542.64zm19.893.028L31.669 18.6h4.748l4.828-9.053L46.07 18.6h4.748zM9.319 4.448a5.14 5.14 0 0 1 4.545 2.296c.567.853.871 1.857.871 2.883a5.2 5.2 0 0 1-1.52 3.668 5.16 5.16 0 0 1-3.636 1.52 5.14 5.14 0 0 1-2.86-.87 5.2 5.2 0 0 1-1.906-2.324 5.21 5.21 0 0 1 1.11-5.656 5.15 5.15 0 0 1 3.396-1.518" fill="#000" fill-opacity="1"/></svg>
